Flat-Remix-Dark/apps/scalable/alienarena.svg

<svg xmlns="http://www.w3.org/2000/svg" width="384pt" height="384pt" version="1.1" viewBox="0 0 384 384">
 <defs>
  <linearGradient id="linear0" x1="24.136" x2="24.136" y1="25.237" y2="15.52" gradientTransform="matrix(10.961829,0,0,10.957514,-71.083958,-70.98034)" gradientUnits="userSpaceOnUse">
   <stop offset="0" style="stop-color:rgb(4.705%,63.137%,36.862%);stop-opacity:0.996078"/>
   <stop offset="1" style="stop-color:rgb(9.803%,63.137%,52.941%)"/>
  </linearGradient>
  <linearGradient id="linear1" x1="25.986" x2="25.986" y1="39.4" y2="8.6" gradientTransform="matrix(10.961829,0,0,10.957514,-71.083958,-70.98034)" gradientUnits="userSpaceOnUse">
   <stop offset="0" style="stop-color:rgb(3.921%,50.588%,29.411%)"/>
   <stop offset="1" style="stop-color:rgb(4.705%,63.137%,36.862%)"/>
  </linearGradient>
  <linearGradient id="linear2" x1="25.986" x2="25.986" y1="39.4" y2="8.6" gradientTransform="matrix(10.961829,0,0,10.957514,-71.083958,-70.98034)" gradientUnits="userSpaceOnUse">
   <stop offset="0" style="stop-color:rgb(3.921%,50.588%,29.411%)"/>
   <stop offset="1" style="stop-color:rgb(4.705%,63.137%,36.862%)"/>
  </linearGradient>
 </defs>
 <g>
  <path style="fill:url(#linear0)" d="M 192 23.25 C 101.183594 23.25 27.5625 80.042969 27.574219 150.097656 C 27.648438 180.871094 42.230469 210.570312 68.59375 233.667969 C 81.960938 308.007812 133.074219 360.648438 192 360.75 C 250.917969 360.664062 302.039062 308.058594 315.425781 233.734375 C 341.804688 210.617188 356.375 180.890625 356.425781 150.097656 C 356.4375 80.042969 282.816406 23.25 192 23.25 Z M 192 23.25"/>
  <path style="fill:url(#linear1)" d="M 95.65625 104.894531 C 109.871094 105.226562 125.113281 131.652344 138.902344 139.609375 C 172.660156 159.09375 189.128906 171.828125 175.6875 195.082031 C 162.257812 218.335938 124.011719 221.402344 90.261719 201.929688 C 56.503906 182.449219 40.035156 147.796875 53.476562 124.542969 C 60.898438 111.6875 76.429688 104.453125 95.65625 104.894531 Z M 95.65625 104.894531"/>
  <path style="fill:url(#linear2)" d="M 288.34375 104.894531 C 307.570312 104.453125 323.101562 111.6875 330.523438 124.542969 C 343.964844 147.796875 327.496094 182.449219 293.738281 201.929688 C 259.988281 221.402344 221.742188 218.335938 208.3125 195.082031 C 194.871094 171.828125 211.339844 159.09375 245.097656 139.609375 C 258.886719 131.652344 274.128906 105.226562 288.34375 104.894531 Z M 288.34375 104.894531"/>
  <path style="fill:rgb(20.000%,20.000%,20.000%)" d="M 134.578125 252.566406 L 249.421875 252.566406 C 252.640625 252.566406 233.300781 255.144531 233.300781 258.367188 L 233.300781 285.480469 C 233.300781 288.699219 230.71875 269.386719 227.496094 269.386719 L 156.503906 269.386719 C 153.28125 269.386719 150.699219 288.699219 150.699219 285.480469 L 150.699219 258.367188 C 150.699219 255.144531 131.359375 252.566406 134.578125 252.566406 Z M 134.578125 252.566406"/>
  <path style="fill-rule:evenodd;fill:rgb(20.000%,20.000%,20.000%);stroke:rgb(20.000%,20.000%,20.000%)" d="M 523.697742 536.681234 C 516.195229 535.217603 510.342114 532.398707 505.210963 527.775605 C 497.571937 520.896541 494.467352 511.781219 497.656378 505.600195 C 499.618205 501.794756 503.143585 499.25029 507.825795 498.258118 C 513.688761 497.016846 515.208685 497.676887 522.120118 504.470103 C 525.096635 507.395957 528.546019 510.365438 529.785882 511.067699 C 536.190673 514.701444 540.803924 518.482958 542.223927 521.265264 C 544.910534 526.530112 540.616748 533.685013 533.463254 535.862164 C 531.027154 536.60383 525.625794 537.056993 523.697742 536.681234 Z M 523.697742 536.681234" transform="matrix(2.775632,0,0,2.775632,-1328.182147,-1276.0047)"/>
  <path style="fill-rule:evenodd;fill:rgb(20.000%,20.000%,20.000%);stroke:rgb(20.000%,20.000%,20.000%)" d="M 571.761117 536.772711 C 579.263631 535.30908 585.116746 532.490184 590.249304 527.868489 C 597.886922 520.989426 600.992915 511.872696 597.803889 505.691672 C 595.840654 501.88764 592.316682 499.343174 587.634472 498.351002 C 581.770098 497.108323 580.250174 497.768364 573.34015 504.56158 C 570.363632 507.487434 566.914249 510.456915 565.674385 511.160584 C 559.268186 514.792921 554.654936 518.575843 553.234932 521.358148 C 550.548326 526.621588 554.843519 533.77649 561.995606 535.95364 C 564.431706 536.695307 569.834473 537.14847 571.761117 536.772711 Z M 571.761117 536.772711" transform="matrix(2.775632,0,0,2.775632,-1328.182147,-1276.0047)"/>
 </g>
 <path style="fill:#ffffff;fill-opacity:0.99607801;opacity:0.3" d="M 256 31 C 134.91145 31 36.749998 106.72461 36.765625 200.13086 C 36.769494 201.73528 36.814149 203.33595 36.876953 204.93555 C 40.423115 113.93385 137.16551 41 256 41 C 374.85491 41 471.61027 113.95886 475.125 204.98242 C 475.18774 203.36716 475.2317 201.751 475.23438 200.13086 C 475.24998 106.72461 377.08853 31 256 31 z" transform="scale(0.75)"/>
 <path style="fill-opacity:0.99607801;opacity:0.3" d="M 36.876953 194.93555 C 36.809689 196.66167 36.765334 198.3921 36.765625 200.13086 C 36.864558 241.1621 56.307944 280.75976 91.458984 311.55664 C 109.2819 410.67641 177.43229 480.8646 256 481 C 334.55728 480.88547 402.7194 410.74543 420.56836 311.64648 C 455.74024 280.82356 475.16665 241.18814 475.23438 200.13086 C 475.23466 198.40787 475.19105 196.69301 475.125 194.98242 C 473.59779 234.30072 454.35234 272.03985 420.56836 301.64648 C 402.7194 400.74543 334.55728 470.88547 256 471 C 177.43229 470.8646 109.2819 400.67641 91.458984 301.55664 C 57.682435 271.96399 38.420302 234.24391 36.876953 194.93555 z" transform="scale(0.75)"/>
</svg>

<svg width="512" height="512" version="1.1" viewBox="0 0 384 384" xmlns="http://www.w3.org/2000/svg"><defs><linearGradient id="linear0" x1="24.136" x2="24.136" y1="25.237" y2="15.52" gradientTransform="matrix(10.962 0 0 10.958 -71.084 -70.98)" gradientUnits="userSpaceOnUse"><stop stop-color="#0ba05d" stop-opacity=".99608" offset="0"/><stop stop-color="#18a086" offset="1"/></linearGradient><linearGradient id="linear1" x1="25.986" x2="25.986" y1="39.4" y2="8.6" gradientTransform="matrix(10.962 0 0 10.958 -71.084 -70.98)" gradientUnits="userSpaceOnUse"><stop stop-color="#09804a" offset="0"/><stop stop-color="#0ba05d" offset="1"/></linearGradient></defs><path d="m192 23.25c-90.816 0-164.44 56.793-164.43 126.85 0.07422 30.773 14.656 60.473 41.02 83.57 13.367 74.34 64.48 126.98 123.41 127.08 58.918-0.0859 110.04-52.691 123.43-127.02 26.379-23.117 40.949-52.844 41-83.637 0.01172-70.055-73.609-126.85-164.43-126.85z" fill="url(#linear0)"/><path d="m95.656 104.89c14.215 0.33203 29.457 26.758 43.246 34.715 33.758 19.484 50.227 32.219 36.785 55.473-13.43 23.254-51.676 26.32-85.426 6.8477-33.758-19.48-50.227-54.133-36.785-77.387 7.4219-12.855 22.953-20.09 42.18-19.648z" fill="url(#linear1)"/><path d="m288.34 104.89c19.227-0.4414 34.758 6.793 42.18 19.648 13.441 23.254-3.0274 57.906-36.785 77.387-33.75 19.473-71.996 16.406-85.426-6.8477-13.441-23.254 3.0273-35.988 36.785-55.473 13.789-7.957 29.031-34.383 43.246-34.715z" fill="url(#linear1)"/><g fill="#333"><path d="m134.58 252.57h114.84c3.2188 0-16.121 2.5781-16.121 5.8008v27.113c0 3.2188-2.582-16.094-5.8047-16.094h-70.992c-3.2227 0-5.8047 19.312-5.8047 16.094v-27.113c0-3.2227-19.34-5.8008-16.121-5.8008z"/><path transform="matrix(2.7756 0 0 2.7756 -1328.2 -1276)" d="m523.7 536.68c-7.5025-1.4636-13.356-4.2825-18.487-8.9056-7.639-6.8791-10.744-15.994-7.5546-22.175 1.9618-3.8054 5.4872-6.3499 10.169-7.3421 5.863-1.2413 7.3829-0.58123 14.294 6.212 2.9765 2.9259 6.4259 5.8953 7.6658 6.5976 6.4048 3.6337 11.018 7.4153 12.438 10.198 2.6866 5.2648-1.6072 12.42-8.7607 14.597-2.4361 0.74167-7.8375 1.1948-9.7655 0.81907z" fill-rule="evenodd" stroke="#333"/><path transform="matrix(2.7756 0 0 2.7756 -1328.2 -1276)" d="m571.76 536.77c7.5025-1.4636 13.356-4.2825 18.488-8.9042 7.6376-6.8791 10.744-15.996 7.5546-22.177-1.9632-3.804-5.4872-6.3485-10.169-7.3407-5.8644-1.2427-7.3843-0.58264-14.294 6.2106-2.9765 2.9258-6.4259 5.8953-7.6658 6.599-6.4062 3.6323-11.019 7.4153-12.439 10.198-2.6866 5.2634 1.6086 12.418 8.7607 14.595 2.4361 0.74167 7.8389 1.1948 9.7655 0.81907z" fill-rule="evenodd" stroke="#333"/></g><path transform="scale(.75)" d="m256 31c-121.09 0-219.25 75.725-219.23 169.13 0.0039 1.6044 0.04852 3.2051 0.11133 4.8047 3.5462-91.002 100.29-163.94 219.12-163.94 118.85 0 215.61 72.959 219.12 163.98 0.0627-1.6153 0.1067-3.2314 0.10938-4.8516 0.0156-93.406-98.146-169.13-219.23-169.13z" fill="#fff" fill-opacity=".99608" opacity=".3"/><path transform="scale(.75)" d="m36.877 194.94c-0.06726 1.7261-0.11162 3.4566-0.11133 5.1953 0.09893 41.031 19.542 80.629 54.693 111.43 17.823 99.12 85.973 169.31 164.54 169.44 78.557-0.11453 146.72-70.255 164.57-169.35 35.172-30.823 54.598-70.458 54.666-111.52 2.8e-4 -1.723-0.0433-3.4378-0.10938-5.1484-1.5272 39.318-20.773 77.057-54.557 106.66-17.849 99.099-86.011 169.24-164.57 169.35-78.568-0.1354-146.72-70.324-164.54-169.44-33.777-29.593-53.039-67.313-54.582-106.62z" fill-opacity=".99608" opacity=".3"/></svg>
